tools/download-figma-icons/icons/solid/s-pedelec.svg

<svg width="24" height="24" viewBox="0 0 24 24" fill="none" xmlns="http://www.w3.org/2000/svg">
<path fill-rule="evenodd" clip-rule="evenodd" d="M11.6175 13.6502L11.0707 12.1802L12.2025 11.7527C12.3075 11.7152 12.36 11.6177 12.3225 11.5352L11.3775 9.48774C11.34 9.41274 11.2425 9.38274 11.1525 9.41274L10.1775 9.78024L9.77999 8.70774H15.375L11.6175 13.6502ZM9.51 14.3478C9.345 13.0203 8.63325 11.8578 7.6125 11.1003L8.475 9.50276L10.275 14.3478H9.51ZM19.2225 10.1627C18.99 10.1627 18.765 10.1852 18.5475 10.2152L17.22 5.93274C16.95 5.07774 16.17 4.50024 15.27 4.50024H13.74V6.00024H15.27C15.51 6.00024 15.7125 6.15024 15.7875 6.38274L16.0425 7.20774H9.2175L8.9475 6.47274L10.0425 6.17274C10.0425 6.17274 11.085 5.90274 10.65 5.37774H6.3525L6.21 6.58524H7.3875L7.7775 7.62774L6.285 10.4027C5.805 10.2452 5.3025 10.1552 4.77 10.1552C2.1375 10.1552 0 12.2927 0 14.9327C0 17.5652 2.1375 19.7027 4.77 19.7027C7.095 19.7027 9.03 18.0452 9.4575 15.8477H10.905C11.4675 15.8477 11.985 15.6002 12.36 15.1427L16.725 9.41274L17.115 10.6577C15.5325 11.4377 14.4457 13.0652 14.4457 14.9402C14.4457 17.5727 16.59 19.7177 19.2225 19.7177C21.855 19.7177 24 17.5727 24 14.9402C24 12.3077 21.855 10.1627 19.2225 10.1627Z" fill="black"/>
</svg>

<svg xmlns="http://www.w3.org/2000/svg" width="24" height="24" fill="none" viewBox="0 0 24 24"><path fill="currentColor" fill-rule="evenodd" d="m11.618 13.65-.547-1.47 1.132-.427c.104-.038.157-.135.12-.218l-.946-2.047c-.037-.075-.135-.105-.225-.075l-.974.367-.398-1.072h5.595zm-2.108.698A4.8 4.8 0 0 0 7.613 11.1l.862-1.597 1.8 4.845zm9.713-4.185a5 5 0 0 0-.675.052L17.22 5.933A2.04 2.04 0 0 0 15.27 4.5h-1.53V6h1.53c.24 0 .443.15.518.383l.255.825H9.218l-.27-.735 1.095-.3s1.042-.27.607-.795H6.353L6.21 6.585h1.178l.39 1.043-1.493 2.775a4.8 4.8 0 0 0-1.515-.248 4.774 4.774 0 1 0 4.688 5.693h1.447c.563 0 1.08-.248 1.455-.705l4.365-5.73.39 1.245a4.78 4.78 0 0 0-2.67 4.282 4.785 4.785 0 0 0 4.778 4.778A4.785 4.785 0 0 0 24 14.94a4.785 4.785 0 0 0-4.777-4.777" clip-rule="evenodd"/></svg>
